newicons/emoji_card_file_box.svg

<?xml version="1.0" encoding="UTF-8" standalone="no"?>
<svg
   version="1.2"
   viewBox="0 0 48 48"
   id="svg7"
   xmlns="http://www.w3.org/2000/svg"
   xmlns:svg="http://www.w3.org/2000/svg">
  <defs
     id="defs1" />
  <path
     d="m 18.11756,17.358385 c -0.23091,-0.165317 -0.513828,-0.262658 -0.819397,-0.262658 h -6.146519 c -0.77833,0 -1.4091928,0.631134 -1.4091928,1.409626 v 0.65672"
     fill="none"
     stroke="#ffffff"
     stroke-linecap="round"
     stroke-linejoin="round"
     stroke-width="1"
     id="path1"
     style="stroke-width:1;stroke-dasharray:none" />
  <path
     d="m 28.031303,20.23829 c -0.228984,-0.468745 -0.710298,-0.791595 -1.266964,-0.791595 h -6.146442 c -0.778254,0 -1.409271,0.631134 -1.409271,1.409626 v 0.981573 H 9.7424512"
     fill="none"
     stroke="#ffffff"
     stroke-linecap="round"
     stroke-linejoin="round"
     stroke-width="1"
     id="path2"
     style="stroke-width:1;stroke-dasharray:none" />
  <path
     d="m 38.073099,24.80173 v -0.888165 c 0,-0.704426 -0.630863,-1.275521 -1.409194,-1.275521 h -6.146519 c -0.778254,0 -1.409194,0.571095 -1.409194,1.275521 V 24.80173 H 9.7424512"
     fill="none"
     stroke="#ffffff"
     stroke-linecap="round"
     stroke-linejoin="round"
     stroke-width="1"
     id="path3"
     style="stroke-width:1;stroke-dasharray:none" />
  <path
     d="m 5.5191846,11.885355 0.00917,15.948186 H 42.5 L 42.4908,11.885355"
     fill="none"
     stroke="#ffffff"
     stroke-linecap="round"
     stroke-linejoin="round"
     stroke-width="1"
     id="path4"
     style="stroke-width:1;stroke-dasharray:none" />
  <path
     d="M 5.4999998,6.785734 H 42.490832 v 5.099621 H 5.4999998 V 6.785734"
     fill="none"
     stroke="#ffffff"
     stroke-linecap="round"
     stroke-linejoin="round"
     stroke-width="1"
     id="path5"
     style="stroke-width:1;stroke-dasharray:none" />
  <path
     d="M 5.5283533,27.833541 H 42.5 V 41.214266 H 5.5283533 V 27.833541"
     fill="none"
     stroke="#ffffff"
     stroke-linecap="round"
     stroke-linejoin="round"
     stroke-width="1"
     id="path6"
     style="stroke-width:1;stroke-dasharray:none" />
  <path
     d="m 18.508267,31.493171 h 11.114678 v 5.277732 H 18.508267 v -5.277732"
     fill="none"
     stroke="#ffffff"
     stroke-linecap="round"
     stroke-linejoin="round"
     stroke-width="1"
     id="path7"
     style="stroke-width:1;stroke-dasharray:none" />
</svg>

<?xml version="1.0" encoding="UTF-8"?><svg id="a" xmlns="http://www.w3.org/2000/svg" viewBox="0 0 48 48"><defs><style>.i{fill:none;stroke:#fff;stroke-linecap:round;stroke-linejoin:round;}</style></defs><path id="b" class="i" d="M18.1176,17.3584c-.2309-.1653-.5138-.2627-.8194-.2627h-6.1465c-.7783,0-1.4092.6311-1.4092,1.4096v.6567"/><path id="c" class="i" d="M28.0313,20.2383c-.229-.4687-.7103-.7916-1.267-.7916h-6.1464c-.7783,0-1.4093.6311-1.4093,1.4096v.9816h-9.4662"/><path id="d" class="i" d="M38.0731,24.8017v-.8882c0-.7044-.6309-1.2755-1.4092-1.2755h-6.1465c-.7783,0-1.4092.5711-1.4092,1.2755v.8882H9.7425"/><path id="e" class="i" d="M5.5192,11.8854l.0092,15.9482h36.9716l-.0092-15.9482"/><path id="f" class="i" d="M5.5,6.7857h36.9908v5.0996H5.5v-5.0996"/><path id="g" class="i" d="M5.5284,27.8335h36.9716v13.3807H5.5284v-13.3807"/><path id="h" class="i" d="M18.5083,31.4932h11.1147v5.2777h-11.1147v-5.2777"/></svg>
